icons/2_Variations/diaspora bg.var.svg

<svg width="1024" height="1024" fill="none" xmlns="http://www.w3.org/2000/svg"><g clip-path="url(#a)"><path d="M512 1024c282.77 0 512-229.23 512-512S794.77 0 512 0 0 229.23 0 512s229.23 512 512 512Z" fill="#728DBE"/><path d="M581.6 724.1c-14.4-20-36.8-51.3-49.8-69.5-13.3-18.6-24.1-33.1-24.7-33.1-.6 0-21.5 28.1-49.5 66.5-26.7 36.6-48.7 66.5-49 66.5-.8 0-96.1-67.2-96.4-67.9-.1-.3 21.4-32 47.9-70.3s48.1-70.3 48.1-71c0-1.2-8.6-4.2-75.8-26.6-41.7-13.9-76.3-25.4-76.8-25.6-.7-.3 3.3-13.6 16.9-56.5 9.8-30.9 18-56.4 18.3-56.8.3-.3 36.5 11.3 80.6 25.8 44 14.5 80.4 26.3 80.9 26.3s1-.7 1.1-1.5c.2-.8.6-38.3.8-83.3.2-45 .8-82.2 1.1-82.7.4-.7 12.8-.8 58.2-.8 31.7 0 58 .2 58.4.5.5.3 1.4 25.1 2.8 80.7 2.4 91.3 2.4 92.5 3.9 92.5.6 0 35.5-11.7 77.6-26 42.1-14.3 76.7-25.7 77-25.4.9 1 35.4 113.4 35 113.8-.2.2-35.4 12.3-78.1 26.7-58.8 19.9-77.7 26.6-77.9 27.4-.1.6 20.1 30.8 45.8 68.4 25.3 37 45.9 67.6 45.8 67.9-.3.8-94.9 70.5-95.7 70.5-.2-.1-12.2-16.5-26.5-36.5Z" fill="#fff"/></g><defs><clipPath id="a"><path fill="#fff" d="M0 0h1024v1024H0z"/></clipPath></defs></svg>

<svg width="1024" height="1024" viewBox="0 0 1024 1024" fill="none" xmlns="http://www.w3.org/2000/svg">
<g clip-path="url(#clip0_3_53)">
<path d="M512 1024C794.77 1024 1024 794.77 1024 512C1024 229.23 794.77 0 512 0C229.23 0 0 229.23 0 512C0 794.77 229.23 1024 512 1024Z" fill="#728DBE"/>
<path d="M581.6 724.1C567.2 704.1 544.8 672.8 531.8 654.6C518.5 636 507.7 621.5 507.1 621.5C506.5 621.5 485.6 649.6 457.6 688C430.9 724.6 408.9 754.5 408.6 754.5C407.8 754.5 312.5 687.3 312.2 686.6C312.1 686.3 333.6 654.6 360.1 616.3C386.6 578 408.2 546 408.2 545.3C408.2 544.1 399.6 541.1 332.4 518.7C290.7 504.8 256.1 493.3 255.6 493.1C254.9 492.8 258.9 479.5 272.5 436.6C282.3 405.7 290.5 380.2 290.8 379.8C291.1 379.5 327.3 391.1 371.4 405.6C415.4 420.1 451.8 431.9 452.3 431.9C452.8 431.9 453.3 431.2 453.4 430.4C453.6 429.6 454 392.1 454.2 347.1C454.4 302.1 455 264.9 455.3 264.4C455.7 263.7 468.1 263.6 513.5 263.6C545.2 263.6 571.5 263.8 571.9 264.1C572.4 264.4 573.3 289.2 574.7 344.8C577.1 436.1 577.1 437.3 578.6 437.3C579.2 437.3 614.1 425.6 656.2 411.3C698.3 397 732.9 385.6 733.2 385.9C734.1 386.9 768.6 499.3 768.2 499.7C768 499.9 732.8 512 690.1 526.4C631.3 546.3 612.4 553 612.2 553.8C612.1 554.4 632.3 584.6 658 622.2C683.3 659.2 703.9 689.8 703.8 690.1C703.5 690.9 608.9 760.6 608.1 760.6C607.9 760.5 595.9 744.1 581.6 724.1Z" fill="white"/>
</g>
<defs>
<clipPath id="clip0_3_53">
<rect width="1024" height="1024" fill="white"/>
</clipPath>
</defs>
</svg>
